X: 32709
T: Polka De Vilagarcía
R: polka
M: 2/4
K: Dmajor
L: 1/16
A2|:dcdA BAFA|dcdA BAFA|dced cdBc|ABGA FEDA|
dcdA BAFA|dcdA BAFA|dced cdBc|1 AFGE D3A:|2 AFGE DADF||
|:~A3B ~G3A|FEDE FEFD|FECE ~G3B|~A3F EDDF|
~A3B ~G3A|FEDE FEFD|FECD EDEC|1 D4-DEFG:|2 D6 F2||
|:~G3A BAGA|~F3G AFDF|FECE BAGB|AF~F2 DDEF|
~G3A BAGA|~F3G AFDF|FECE AGFE|1 D4-DDEF:|2 D5||

